X:1
T:6 Lieder, Op. 6
T:Verlornes Glück
T:To Fräulein Angela Oppenhoff 
T:6 Lieder, Op. 6
T:Johanna Kinkel
T:5. Verlornes Glück
T:Johanna Kinkel
T:Creative Commons copyright waiver (CC0 1.0 Universal)
C:Johanna Kinkel
Z:Johanna Kinkel
Z:Creative Commons copyright waiver (CC0 1.0 Universal)
%%score 1 { ( 2 4 ) | 3 }
L:1/8
Q:1/4=92
M:3/4
K:Bb
V:1 treble nm="Voice\nSingstimme"
V:2 treble nm="Piano"
V:4 treble 
V:3 bass 
V:1
"^Andante" z2"^Full lyrics available at\nhttps://www.lieder.net/lieder/get_text.html?TextId=23742\n" z2!p! G A | %1
w: 1.  Sit- ze|
w: 2.  Schön und|
w: 3.  Von den|
 B3 A/G/ ^F G | A2 d z d c | B3 A/G/ A =F | c2 B z!mf! B c | d3 c/B/ !>!e d | !>!d2 c z z2 | %7
w: hier an * lie- ber|Stel- le, wo ich|einst nicht * sass al-|1.  lei- ne; da- mals|klang hier * süs- se|Re- de,|
w: hell nennt * man die|Er- de, vol- ler|Lust und * vol- ler|2.  Freu- den; doch ist|mir sie * e- wig|dun- kel,|
w: vie- len * duft’- gen|Kräu- tern, die in|die- sem * Gar- ten|3.  ste- hen, wird kein|einz’- ges, * ach, mich|hei- len;|
!f! B4 B2 | e4- e d | ^c4 G2 |!>(! (B4 A2)!>)! | G2 z4 |"_Johanna Mathieux" z6 | z6 | z6 :| z6 |] %16
w: wo ich|heut’ _ mein|1.  Loss be-|wei- *|ne.|||||
w: weil ich|soll _ ihr|2.  Schön- stes|mei- *|den.|||||
w: ich muss|qual- * voll|3.  un- ter-|ge- *|hen.|||||
V:2
!f!"^Andante" [GBdg]2 G2!p! .[B,G].[DA] | B3 A/G/ [B,^F][DG] | [^FA]D[Fd]D [Fd][Ac] | %3
 B3 A/G/ [EA]F | [Ec]F [DB]F!mf! .[DB].[Fc] | d3 c/B/ [Fe][Bd] | %6
!<(! [^Fd]E [Fc]D!<)!!f! [Fe][Dd]/c/ | !/![DGB]4 [D_AB][DAB] | gggfed | [GB^c][GBc] bbag | %10
!>(! !/![Bdg]4 !trill(!T^f2{=ef}!>)! | g3!p!!<(! bag!<)! |!mp! ^f3!p!!<(! fff!<)! | %13
!mp! [Bg]>[ca][db]!p!!<(! bag!<)! |!mf! ^f3!<(! fff!<)! :| %15
!f! !tenuto!.!fermata![GBdg]2!mp! !fermata!G2 z2 |] %16
V:3
 [G,,G,]2 [G,B,D]2 z2 | [G,,D,G,]4 [G,,D,G,]2 | [D,A,]4 [D,A,]2 | [G,,G,]4 [=F,C]2 | %4
 [B,,F,B,]4 z2 | [B,,F,B,]4 B,2 | [A,C]4 [D,A,]2 | !/![G,,G,]4 [F,,F,][F,,F,] | %8
 [E,,B,,E,][E,B,E] [E,B,E][E,B,E][E,B,E][E,B,E] | [E,B,E][E,B,E] !/![E,G,E]4 | %10
 !/![D,G,D]4 [D,A,D][D,A,D] |!ped! [G,,G,][K:treble] [DG] !/![DG]4!ped-up! | %12
[K:bass]!ped! [D,D]D !/!D4!ped-up! |!ped! [G,,G,][K:treble] [DG] !/![DG]4!ped-up! | %14
[K:bass]!ped! [D,D]D !/!D4!ped-up! :| [G,,G,]2 [G,B,D]2 z2 |] %16
V:4
 x6 | GDB,D x2 | x6 | GDB,D x2 | x6 | BFDF x2 | x6 | x6 | !/![GB]6 | x2 !/![B^c]4 | %10
 x4 !trill)!=c2 | !/![Bd]6 | [Ac]>[Bd][ce] [ce][Bd][Ac] | G2 z [Bd][Bd][Bd] | %14
 [Ac]>[Bd][ce] [ce][Bd][Ac] :| x6 |] %16

